X:1
T:Ascendit
T:Ascendit
T:Courtesy of the Cyber Hymnal (http://www.cyberhymnal.org)
T:Courtesy of the Cyber Hymnal (http://www.cyberhymnal.org)
Z:Courtesy of the Cyber Hymnal (http://www.cyberhymnal.org)
%%score { ( 1 2 ) ( 3 4 ) }
L:1/8
Q:1/4=113
M:1/4
K:D
V:1 treble nm="P1"
V:2 treble 
V:3 bass nm="P2"
V:4 bass 
V:1
"^Editor: John Henry Fowler""^( Revision: 11-24-2007 )" A2 |[M:4/4] c2 B2 A2 B2 | A3 G F2 E2 | %3
 F2"^( 1875 )" ^G2 A2 F2 | d2 c2 B2 A2 | e3 d"^John Stainer" c2"^( 1840 - 1901 )" B2 | A6 A2 | %7
 B3 F F2 G2 | E2 F2 G2 E2 | A3 E E2 F2 | D2 E2 F2 G2 | A2 d2 d2 c2 |[M:3/4] d6 |] %13
V:2
 D2 |[M:4/4] G2 F2 E2 F2 | E2 E2 D2 E2 | E2 D2 C2 D2 | E2 E2 E2 E2 | F2 F2 E3 D | C6 E2 | %7
 ^D3 D D2 D2 | E2 ^D2 E2 E2 | C3 C C2 C2 | D2 C2 D2 D2 | F2 B2 A3 G |[M:3/4] F6 |] %13
V:3
 A,2 |[M:4/4] A,2 B,2 E2 D2 | B,2 C2 D2 A,2 | A,2 B,2 A,2 A,2 | B,2 A,2 ^G,2 A,2 | %5
 A,2 A,2 A,2 ^G,2 | A,6 C2 | B,3 B, B,2 B,2 | B,2 A,2 G,2 B,2 | A,3 A, A,2 A,2 | A,2 G,2 A,2 D2 | %11
 D2 E2 F2 E2 |[M:3/4] D6 |] %13
V:4
 F,2 |[M:4/4] E,2 D,2 C,2 D,2 | E,2 A,,2 D,2 C,2 | D,2 B,,2 F,2 F,2 | ^G,2 A,2 D,2 C,2 | %5
 D,2 B,,2 E,2 E,2 | A,,6 A,2 | A,3 A, A,2 A,2 | G,2 F,2 E,2 G,2 | G,3 G, G,2 G,2 | %10
 F,2 E,2 D,2 B,2 | A,2 ^G,2 A,2 A,,2 |[M:3/4] D,6 |] %13

